docs/img/icons/choice-option.svg

<svg width="50" height="50" viewBox="0 0 50 50" fill="none" xmlns="http://www.w3.org/2000/svg">
<path d="M12.7344 18.7344C7.57031 18.7344 3.36719 14.5312 3.36719 9.36719C3.36719 6.86719 4.34375 4.51562 6.10938 2.74219C7.88281 0.976562 10.2344 0 12.7344 0C15.2344 0 17.5859 0.976562 19.3594 2.74219C21.1328 4.51562 22.1016 6.86719 22.1016 9.36719C22.1016 11.8359 21.1484 14.1641 19.4141 15.9297C19.1172 16.2266 18.6406 16.2344 18.3438 15.9375C18.0469 15.6406 18.0391 15.1641 18.3359 14.8672C19.7891 13.3906 20.5859 11.4453 20.5859 9.375C20.5859 7.28125 19.7656 5.30469 18.2891 3.82031C16.8047 2.33594 14.8359 1.52344 12.7344 1.52344C10.6406 1.52344 8.66406 2.34375 7.17969 3.82031C5.69531 5.30469 4.875 7.27344 4.875 9.375C4.875 13.7031 8.39844 17.2266 12.7266 17.2266C13.4844 17.2266 14.2188 17.1172 14.9219 16.9141C15.3203 16.7891 15.7422 17.0234 15.8672 17.4219C15.9844 17.8203 15.7578 18.2422 15.3594 18.3672C14.5234 18.6094 13.6406 18.7344 12.7344 18.7344ZM27.3594 25.4141C27.0625 25.4141 26.7734 25.2344 26.6563 24.9375L25.0625 20.9531C24.7656 20.2031 23.9141 19.8359 23.1641 20.1406C22.7969 20.2891 22.5156 20.5625 22.3594 20.9219C22.2031 21.2812 22.2031 21.6797 22.3438 22.0391C22.5 22.4297 22.3125 22.8672 21.9219 23.0234C21.5391 23.1797 21.0938 22.9922 20.9375 22.6016C20.6406 21.8594 20.6484 21.0547 20.9688 20.3203C21.2813 19.5859 21.8594 19.0234 22.6016 18.7266C24.125 18.1172 25.8594 18.8594 26.4766 20.3828L28.0703 24.3672C28.2266 24.7578 28.0391 25.1953 27.6484 25.3516C27.5547 25.3984 27.4531 25.4141 27.3594 25.4141Z" fill="#397345"/>
<path d="M31.1719 25.047C30.8751 25.047 30.586 24.8674 30.4688 24.5705L29.3907 21.8674C29.2813 21.6017 29.0782 21.3908 28.8126 21.2736C28.5469 21.1564 28.2501 21.1564 27.9844 21.2658C27.7188 21.3752 27.5079 21.5783 27.3907 21.8439C27.2813 22.1095 27.2735 22.4064 27.3829 22.672C27.5391 23.0627 27.3516 23.5002 26.961 23.6564C26.5704 23.8127 26.1329 23.6252 25.9766 23.2345C25.7188 22.5939 25.7266 21.883 26 21.2502C26.2735 20.6095 26.7813 20.1174 27.4219 19.8595C28.0625 19.6017 28.7735 19.6095 29.4063 19.883C30.0469 20.1564 30.5391 20.6642 30.7969 21.3049L31.8751 24.008C32.0313 24.3986 31.8438 24.8361 31.4532 24.9924C31.3672 25.0314 31.2657 25.047 31.1719 25.047Z" fill="#397345"/>
<path d="M28.0703 44.9299C27.8594 44.9299 27.6563 44.844 27.5156 44.6877C23.5391 40.3831 17.8438 40.0549 14.7969 40.2424C13.5859 40.3127 12.5 39.6331 12.0391 38.5081C11.5703 37.3752 11.8594 36.1174 12.7734 35.3206C14.875 33.4768 18.6953 33.3752 20.6641 33.4612L13.7188 16.094C13.4297 15.3752 13.4375 14.5862 13.75 13.8752C14.0625 13.1643 14.6172 12.6096 15.3438 12.3206C16.0625 12.0315 16.8516 12.0393 17.5625 12.3518C18.2734 12.6565 18.8281 13.219 19.1094 13.9377L23.4844 24.8909C23.6406 25.2815 23.4531 25.719 23.0625 25.8752C22.6797 26.0315 22.2344 25.844 22.0781 25.4534L17.7031 14.5002C17.5625 14.1565 17.3047 13.8831 16.9609 13.7424C16.625 13.594 16.2422 13.594 15.8984 13.7268C15.5547 13.8674 15.2813 14.1252 15.1406 14.469C14.9922 14.8127 14.9922 15.1877 15.125 15.5315L22.5156 34.0237C22.6172 34.2737 22.5781 34.5549 22.4141 34.7659C22.25 34.9768 21.9844 35.0862 21.7188 35.0549C21.6641 35.0471 16.1094 34.3909 13.7656 36.4534C13.2578 36.8987 13.2578 37.5081 13.4297 37.9299C13.6016 38.344 14.0078 38.7737 14.6953 38.7346C17.9063 38.5393 23.8906 38.8752 28.2578 43.2893L40.2344 38.5002L34.0625 23.0237C33.8438 22.469 33.2109 22.2034 32.6563 22.4221L32.4453 22.5081C31.8906 22.7268 31.625 23.3596 31.8438 23.9143C32 24.3049 31.8125 24.7424 31.4219 24.8987C31.0313 25.0549 30.5938 24.8674 30.4375 24.4768C30.1797 23.8362 30.1875 23.1252 30.4609 22.4924C30.7344 21.8518 31.2422 21.3596 31.8828 21.1018L32.0938 21.0159C33.4219 20.4846 34.9375 21.1331 35.4688 22.4612L41.9297 38.6252C42.0078 38.8127 42 39.0237 41.9219 39.2034C41.8438 39.3909 41.6953 39.5315 41.5078 39.6096L28.3516 44.8674C28.2578 44.9065 28.1641 44.9299 28.0703 44.9299Z" fill="#397345"/>
<path d="M30.1016 50C30 50 29.8984 49.9766 29.8047 49.9375C29.6172 49.8594 29.4766 49.7109 29.3984 49.5234L27.3672 44.4531C27.2109 44.0625 27.3984 43.625 27.7891 43.4688C28.1797 43.3125 28.6172 43.5 28.7734 43.8906L30.5234 48.2578L42.2734 43.5625L40.5234 39.1953C40.3672 38.8047 40.5547 38.3672 40.9453 38.2109C41.3359 38.0547 41.7734 38.2422 41.9297 38.6328L43.9609 43.7031C44.1172 44.0938 43.9297 44.5312 43.5391 44.6875L30.3828 49.9453C30.2891 49.9844 30.1953 50 30.1016 50ZM37.2656 18.7344C32.1016 18.7344 27.8984 14.5312 27.8984 9.36719C27.8984 4.20312 32.1016 0 37.2656 0C42.4297 0 46.6328 4.20312 46.6328 9.36719C46.6328 14.5312 42.4297 18.7344 37.2656 18.7344ZM37.2656 1.51562C32.9375 1.51562 29.4141 5.03906 29.4141 9.36719C29.4141 13.6953 32.9375 17.2188 37.2656 17.2188C41.5937 17.2188 45.1172 13.6953 45.1172 9.36719C45.1172 5.03906 41.5937 1.51562 37.2656 1.51562Z" fill="#397345"/>
<path d="M33.1641 14.2266C32.9688 14.2266 32.7734 14.1563 32.625 14.0078C32.3281 13.7109 32.3281 13.2344 32.625 12.9375L40.8359 4.72656C41.1328 4.42969 41.6094 4.42969 41.9063 4.72656C42.2031 5.02344 42.2031 5.5 41.9063 5.79688L33.6953 14.0078C33.5469 14.1563 33.3516 14.2266 33.1641 14.2266Z" fill="#397345"/>
<path d="M41.375 14.2266C41.1797 14.2266 40.9844 14.1563 40.8359 14.0078L32.625 5.79688C32.3281 5.5 32.3281 5.02344 32.625 4.72656C32.9219 4.42969 33.3984 4.42969 33.6953 4.72656L41.9062 12.9375C42.2031 13.2344 42.2031 13.7109 41.9062 14.0078C41.7578 14.1563 41.5625 14.2266 41.375 14.2266ZM10.8828 13.6406C10.6797 13.6406 10.4922 13.5625 10.3437 13.4219L7.00781 10.0859C6.71094 9.78906 6.71094 9.3125 7.00781 9.01562C7.30469 8.71875 7.78125 8.71875 8.07812 9.01562L10.8828 11.8203L17.3828 5.32031C17.6797 5.02344 18.1562 5.02344 18.4531 5.32031C18.75 5.61719 18.75 6.09375 18.4531 6.39063L11.4141 13.4297C11.2812 13.5625 11.0859 13.6406 10.8828 13.6406Z" fill="#397345"/>
</svg>

<svg width="50" height="50" fill="none" xmlns="http://www.w3.org/2000/svg"><path d="M12.734 18.734c-5.164 0-9.367-4.203-9.367-9.367 0-2.5.977-4.851 2.742-6.625A9.334 9.334 0 0112.734 0c2.5 0 4.852.977 6.625 2.742a9.301 9.301 0 012.743 6.625 9.308 9.308 0 01-2.688 6.563.754.754 0 01-1.07.008.755.755 0 01-.008-1.07 7.774 7.774 0 002.25-5.493 7.84 7.84 0 00-2.297-5.555 7.793 7.793 0 00-5.555-2.297c-2.093 0-4.07.82-5.554 2.297a7.8 7.8 0 00-2.305 5.555c0 4.328 3.523 7.852 7.852 7.852.757 0 1.492-.11 2.195-.313a.76.76 0 01.945.508.767.767 0 01-.508.945 9.429 9.429 0 01-2.625.367zm14.625 6.68a.759.759 0 01-.703-.477l-1.593-3.984a1.453 1.453 0 00-1.899-.812 1.462 1.462 0 00-.82 1.898.757.757 0 11-1.406.563 2.926 2.926 0 01.03-2.282 2.944 2.944 0 011.634-1.593 2.989 2.989 0 013.875 1.656l1.593 3.984a.754.754 0 01-.422.985.645.645 0 01-.289.062z" fill="#397345"/><path d="M31.172 25.047a.759.759 0 01-.703-.477l-1.078-2.703a1.103 1.103 0 00-.578-.593 1.052 1.052 0 00-.829-.008c-.265.11-.476.312-.593.578-.11.265-.117.562-.008.828a.754.754 0 01-.422.984.754.754 0 01-.984-.421A2.57 2.57 0 0126 21.25a2.586 2.586 0 011.422-1.39 2.57 2.57 0 011.984.023c.64.273 1.133.781 1.39 1.422l1.08 2.703a.754.754 0 01-.704 1.039z" fill="#397345"/><path d="M28.07 44.93a.745.745 0 01-.554-.242c-3.977-4.305-9.672-4.633-12.72-4.446a2.772 2.772 0 01-2.757-1.734c-.469-1.133-.18-2.39.734-3.187 2.102-1.844 5.922-1.946 7.891-1.86L13.72 16.094a2.84 2.84 0 01.031-2.219 2.906 2.906 0 011.594-1.554 2.84 2.84 0 012.219.03c.71.305 1.265.868 1.546 1.587l4.375 10.953a.757.757 0 11-1.406.563L17.703 14.5a1.36 1.36 0 00-.742-.758 1.39 1.39 0 00-1.063-.015 1.36 1.36 0 00-.757.742 1.391 1.391 0 00-.016 1.063l7.39 18.492a.747.747 0 01-.1.742.769.769 0 01-.696.289c-.055-.008-5.61-.664-7.953 1.398-.508.446-.508 1.055-.336 1.477.172.414.578.844 1.265.805 3.211-.196 9.196.14 13.563 4.554L40.234 38.5l-6.172-15.476a1.083 1.083 0 00-1.406-.602l-.21.086a1.083 1.083 0 00-.602 1.406.754.754 0 01-.422.985.754.754 0 01-.985-.422 2.57 2.57 0 01.024-1.985 2.586 2.586 0 011.422-1.39l.21-.086a2.6 2.6 0 013.376 1.445l6.46 16.164a.742.742 0 01-.007.578.754.754 0 01-.414.407l-13.156 5.257a.732.732 0 01-.282.063z" fill="#397345"/><path d="M30.102 50a.777.777 0 01-.297-.063.754.754 0 01-.407-.414l-2.03-5.07a.754.754 0 01.421-.984.754.754 0 01.984.422l1.75 4.367 11.75-4.696-1.75-4.367a.754.754 0 01.422-.984.754.754 0 01.985.422l2.03 5.07a.754.754 0 01-.42.984l-13.157 5.258a.72.72 0 01-.281.055zm7.164-31.266c-5.164 0-9.368-4.203-9.368-9.367C27.898 4.203 32.102 0 37.266 0c5.164 0 9.367 4.203 9.367 9.367 0 5.164-4.203 9.367-9.367 9.367zm0-17.218c-4.328 0-7.852 3.523-7.852 7.851 0 4.328 3.523 7.852 7.852 7.852 4.328 0 7.851-3.524 7.851-7.852s-3.523-7.851-7.851-7.851z" fill="#397345"/><path d="M33.164 14.227a.754.754 0 01-.54-1.29l8.212-8.21a.755.755 0 011.07 0 .755.755 0 010 1.07l-8.21 8.21a.75.75 0 01-.532.22z" fill="#397345"/><path d="M41.375 14.227a.756.756 0 01-.54-.22l-8.21-8.21a.754.754 0 010-1.07.754.754 0 011.07 0l8.211 8.21a.754.754 0 01-.531 1.29zm-30.492-.586a.776.776 0 01-.54-.22l-3.335-3.335a.754.754 0 010-1.07.754.754 0 011.07 0l2.805 2.804 6.5-6.5a.754.754 0 011.07 0 .754.754 0 010 1.07l-7.039 7.04a.757.757 0 01-.531.21z" fill="#397345"/></svg>
